logos/nimare.svg

<?xml version="1.0" encoding="UTF-8"?>
<!DOCTYPE svg PUBLIC "-//W3C//DTD SVG 1.1//EN" "http://www.w3.org/Graphics/SVG/1.1/DTD/svg11.dtd">
<svg xmlns="http://www.w3.org/2000/svg" version="1.1" width="382px" height="132px" style="shape-rendering:geometricPrecision; text-rendering:geometricPrecision; image-rendering:optimizeQuality; fill-rule:evenodd; clip-rule:evenodd" xmlns:xlink="http://www.w3.org/1999/xlink">
<g><path style="opacity:1" fill="#0e1116" d="M -0.5,-0.5 C 126.833,-0.5 254.167,-0.5 381.5,-0.5C 381.5,43.5 381.5,87.5 381.5,131.5C 254.167,131.5 126.833,131.5 -0.5,131.5C -0.5,87.5 -0.5,43.5 -0.5,-0.5 Z"/></g>
<g><path style="opacity:1" fill="#dfe5ea" d="M 102.5,37.5 C 111.306,37.464 113.639,41.2974 109.5,49C 99.4151,49.7604 97.0818,45.9271 102.5,37.5 Z"/></g>
<g><path style="opacity:1" fill="#e0e6eb" d="M 78.5,40.5 C 82.1667,40.5 85.8333,40.5 89.5,40.5C 89.5,60.8333 89.5,81.1667 89.5,101.5C 86.1501,101.665 82.8168,101.498 79.5,101C 70,87.5 60.5,74 51,60.5C 50.5001,74.1626 50.3334,87.8293 50.5,101.5C 46.5,101.5 42.5,101.5 38.5,101.5C 38.3334,81.1639 38.5,60.8306 39,40.5C 42.6667,39.1667 46.3333,39.1667 50,40.5C 59.3333,53.8333 68.6667,67.1667 78,80.5C 78.4999,67.1708 78.6666,53.8375 78.5,40.5 Z"/></g>
<g><path style="opacity:1" fill="#e1e7ec" d="M 171.5,40.5 C 175.833,40.5 180.167,40.5 184.5,40.5C 184.5,60.8333 184.5,81.1667 184.5,101.5C 181.5,101.5 178.5,101.5 175.5,101.5C 175.833,87.4841 175.499,73.4841 174.5,59.5C 173.702,59.9569 173.369,60.6236 173.5,61.5C 168.462,74.7798 163.129,87.9465 157.5,101C 154.773,101.818 152.106,101.652 149.5,100.5C 144.098,87.1263 138.598,73.793 133,60.5C 132.5,74.1626 132.333,87.8293 132.5,101.5C 128.833,101.5 125.167,101.5 121.5,101.5C 121.333,81.1639 121.5,60.8306 122,40.5C 126.45,39.1999 130.95,39.1999 135.5,40.5C 141.307,55.2568 147.307,69.9235 153.5,84.5C 160.048,70.0697 166.048,55.403 171.5,40.5 Z"/></g>
<g><path style="opacity:1" fill="#abb0b6" d="M 171.5,40.5 C 175.97,39.5139 180.637,39.1805 185.5,39.5C 185.831,60.3401 185.497,81.0067 184.5,101.5C 184.5,81.1667 184.5,60.8333 184.5,40.5C 180.167,40.5 175.833,40.5 171.5,40.5 Z"/></g>
<g><path style="opacity:1" fill="#e1e7ec" d="M 213.5,39.5 C 217.884,39.1744 222.217,39.5078 226.5,40.5C 234.369,60.5629 241.369,80.8962 247.5,101.5C 243.5,101.5 239.5,101.5 235.5,101.5C 234.306,96.4179 232.806,91.4179 231,86.5C 223.667,85.1667 216.333,85.1667 209,86.5C 206.787,91.3045 205.287,96.3045 204.5,101.5C 200.116,101.826 195.783,101.492 191.5,100.5C 198.842,80.1383 206.175,59.8049 213.5,39.5 Z"/></g>
<g><path style="opacity:1" fill="#dfe5ea" d="M 255.5,39.5 C 265.898,39.1009 276.232,39.6009 286.5,41C 299.85,45.6439 304.017,54.8106 299,68.5C 296.467,72.0277 293.634,75.1944 290.5,78C 294.365,85.5636 298.365,93.0636 302.5,100.5C 298.205,101.661 293.871,101.828 289.5,101C 285.754,93.5066 281.754,86.1733 277.5,79C 273.848,78.5014 270.182,78.3347 266.5,78.5C 266.5,86.1667 266.5,93.8333 266.5,101.5C 262.5,101.5 258.5,101.5 254.5,101.5C 254.179,80.7577 254.512,60.091 255.5,39.5 Z"/></g>
<g><path style="opacity:1" fill="#dfe5ea" d="M 310.5,40.5 C 323.5,40.5 336.5,40.5 349.5,40.5C 349.5,43.5 349.5,46.5 349.5,49.5C 339.985,49.1731 330.652,49.5064 321.5,50.5C 321.5,55.5 321.5,60.5 321.5,65.5C 330.5,65.5 339.5,65.5 348.5,65.5C 348.5,68.8333 348.5,72.1667 348.5,75.5C 339.5,75.5 330.5,75.5 321.5,75.5C 321.5,80.8333 321.5,86.1667 321.5,91.5C 331.167,91.5 340.833,91.5 350.5,91.5C 350.5,94.8333 350.5,98.1667 350.5,101.5C 336.833,101.5 323.167,101.5 309.5,101.5C 309.17,80.9931 309.503,60.6598 310.5,40.5 Z"/></g>
<g><path style="opacity:1" fill="#8f9499" d="M 78.5,40.5 C 82.2984,39.5166 86.2984,39.1832 90.5,39.5C 90.8305,60.3401 90.4972,81.0067 89.5,101.5C 89.5,81.1667 89.5,60.8333 89.5,40.5C 85.8333,40.5 82.1667,40.5 78.5,40.5 Z"/></g>
<g><path style="opacity:1" fill="#6a6f74" d="M 310.5,40.5 C 323.656,39.5044 336.99,39.1711 350.5,39.5C 350.5,43.1667 350.5,46.8333 350.5,50.5C 340.833,50.5 331.167,50.5 321.5,50.5C 330.652,49.5064 339.985,49.1731 349.5,49.5C 349.5,46.5 349.5,43.5 349.5,40.5C 336.5,40.5 323.5,40.5 310.5,40.5 Z"/></g>
<g><path style="opacity:1" fill="#111318" d="M 266.5,49.5 C 272.262,49.1493 277.928,49.6493 283.5,51C 287.084,52.6638 288.751,55.4971 288.5,59.5C 288.651,64.0331 286.651,67.1998 282.5,69C 277.177,69.4994 271.844,69.666 266.5,69.5C 266.5,62.8333 266.5,56.1667 266.5,49.5 Z"/></g>
<g><path style="opacity:1" fill="#16191d" d="M 219.5,52.5 C 222.735,60.2051 225.402,68.2051 227.5,76.5C 222.5,76.5 217.5,76.5 212.5,76.5C 214.426,68.3888 216.759,60.3888 219.5,52.5 Z"/></g>
<g><path style="opacity:1" fill="#676b70" d="M 111.5,56.5 C 107.833,56.5 104.167,56.5 100.5,56.5C 100.5,71.5 100.5,86.5 100.5,101.5C 99.5038,86.3424 99.1705,71.0091 99.5,55.5C 103.702,55.1832 107.702,55.5166 111.5,56.5 Z"/></g>
<g><path style="opacity:1" fill="#e4eaef" d="M 111.5,56.5 C 111.5,71.5 111.5,86.5 111.5,101.5C 107.833,101.5 104.167,101.5 100.5,101.5C 100.5,86.5 100.5,71.5 100.5,56.5C 104.167,56.5 107.833,56.5 111.5,56.5 Z"/></g>
<g><path style="opacity:1" fill="#adb2b7" d="M 175.5,101.5 C 174.833,88.1667 174.167,74.8333 173.5,61.5C 173.369,60.6236 173.702,59.9569 174.5,59.5C 175.499,73.4841 175.833,87.4841 175.5,101.5 Z"/></g>
</svg>

<svg xmlns="http://www.w3.org/2000/svg" width="382" height="132" style="shape-rendering:geometricPrecision;text-rendering:geometricPrecision;image-rendering:optimizeQuality;fill-rule:evenodd;clip-rule:evenodd"><path style="opacity:1" fill="#0e1116" d="M-.5-.5h382v132H-.5V-.5z"/><path style="opacity:1" fill="#dfe5ea" d="M102.5 37.5c8.806-.036 11.139 3.797 7 11.5-10.085.76-12.418-3.073-7-11.5z"/><path style="opacity:1" fill="#e0e6eb" d="M78.5 40.5h11v61a50.464 50.464 0 0 1-10-.5L51 60.5c-.5 13.663-.667 27.33-.5 41h-12c-.167-20.336 0-40.67.5-61 3.667-1.333 7.333-1.333 11 0l28 40c.5-13.33.667-26.663.5-40z"/><path style="opacity:1" fill="#e1e7ec" d="M171.5 40.5h13v61h-9a441.816 441.816 0 0 0-1-42c-.798.457-1.131 1.124-1 2a956.953 956.953 0 0 1-16 39.5c-2.727.818-5.394.652-8-.5a2944.338 2944.338 0 0 0-16.5-40c-.5 13.663-.667 27.33-.5 41h-11c-.167-20.336 0-40.67.5-61 4.45-1.3 8.95-1.3 13.5 0a1770.427 1770.427 0 0 0 18 44 631.484 631.484 0 0 0 18-44z"/><path style="opacity:1" fill="#abb0b6" d="M171.5 40.5c4.47-.986 9.137-1.32 14-1a961.423 961.423 0 0 1-1 62v-61h-13z"/><path style="opacity:1" fill="#e1e7ec" d="M213.5 39.5a43.123 43.123 0 0 1 13 1 762.857 762.857 0 0 1 21 61h-12a129.19 129.19 0 0 0-4.5-15 61.002 61.002 0 0 0-22 0 55.58 55.58 0 0 0-4.5 15 43.117 43.117 0 0 1-13-1c7.342-20.362 14.675-40.695 22-61z"/><path style="opacity:1" fill="#dfe5ea" d="M255.5 39.5c10.398-.4 20.732.1 31 1.5 13.35 4.644 17.517 13.81 12.5 27.5a58.453 58.453 0 0 1-8.5 9.5 727.175 727.175 0 0 0 12 22.5 28.717 28.717 0 0 1-13 .5 349.437 349.437 0 0 0-12-22 60.94 60.94 0 0 0-11-.5v23h-12a977.668 977.668 0 0 1 1-62zM310.5 40.5h39v9c-9.515-.327-18.848.006-28 1v15h27v10h-27v16h29v10h-41a931.31 931.31 0 0 1 1-61z"/><path style="opacity:1" fill="#8f9499" d="M78.5 40.5c3.798-.983 7.798-1.317 12-1 .33 20.84-.003 41.507-1 62v-61h-11z"/><path style="opacity:1" fill="#6a6f74" d="M310.5 40.5a400.606 400.606 0 0 1 40-1v11h-29c9.152-.994 18.485-1.327 28-1v-9h-39z"/><path style="opacity:1" fill="#111318" d="M266.5 49.5c5.762-.35 11.428.15 17 1.5 3.584 1.664 5.251 4.497 5 8.5.151 4.533-1.849 7.7-6 9.5-5.323.5-10.656.666-16 .5v-20z"/><path style="opacity:1" fill="#16191d" d="M219.5 52.5a168.852 168.852 0 0 1 8 24h-15a246.802 246.802 0 0 1 7-24z"/><path style="opacity:1" fill="#676b70" d="M111.5 56.5h-11v45a529.607 529.607 0 0 1-1-46c4.202-.317 8.202.017 12 1z"/><path style="opacity:1" fill="#e4eaef" d="M111.5 56.5v45h-11v-45h11z"/><path style="opacity:1" fill="#adb2b7" d="m175.5 101.5-2-40c-.131-.876.202-1.543 1-2a441.816 441.816 0 0 1 1 42z"/></svg>
